src/assets/img/providers-white/playson.svg

<svg width="124" height="24" viewBox="0 0 124 24" fill="none" xmlns="http://www.w3.org/2000/svg">
<g clip-path="url(#clip0_4051_7436)">
<path fill-rule="evenodd" clip-rule="evenodd" d="M4.34283 22.4241C4.34588 16.8027 4.34588 10.8759 4.34283 4.64349C4.34283 4.54749 4.38626 4.52082 4.47312 4.56349L19.1634 11.9281C19.1768 11.935 19.1881 11.9455 19.196 11.9584C19.2038 11.9713 19.208 11.9861 19.208 12.0012C19.208 12.0163 19.2038 12.0311 19.196 12.044C19.1881 12.0569 19.1768 12.0674 19.1634 12.0743L10.9646 16.1863C10.9498 16.1938 10.9334 16.1974 10.9169 16.1966C10.9004 16.1959 10.8844 16.1909 10.8704 16.1822C10.8563 16.1735 10.8448 16.1613 10.8369 16.1468C10.829 16.1323 10.8249 16.116 10.8251 16.0995C10.8312 14.946 10.8373 13.5783 10.8434 11.9966C10.8526 9.72463 7.44684 9.79777 7.44912 11.8869C7.45064 14.2854 7.44912 16.6961 7.44455 19.1189C7.44226 20.4926 8.94626 21.0618 10.0503 20.5041C14.6385 18.1909 19.2053 15.9022 23.7508 13.6378C25.1908 12.9201 25.2983 11.1418 23.8148 10.4012C17.3127 7.15244 10.5653 3.76958 3.57255 0.25263C2.49598 -0.286798 0.97369 0.197774 0.97369 1.57835C0.972167 8.38368 0.971405 15.3307 0.971405 22.4195C0.973691 24.0881 3.18169 24.4812 4.06626 23.2606C4.25064 23.0062 4.34283 22.7273 4.34283 22.4241ZM34.7383 16.0903C34.7459 15.3909 34.7429 14.6731 34.7291 13.9371C34.7276 13.8351 34.7779 13.7832 34.88 13.7817C36.5989 13.7695 38.3924 13.7695 40.2606 13.7817C41.9909 13.7931 43.1817 12.8217 43.1794 11.0297C43.1789 10.8437 43.182 10.6566 43.1851 10.47C43.2075 9.11407 43.2295 7.78208 41.8491 7.02058C41.4453 6.7981 40.9699 6.68915 40.4229 6.69372C37.9924 6.712 35.7364 6.71353 33.6549 6.69829C33.5174 6.69739 33.3811 6.72368 33.2539 6.77565C33.1266 6.82763 33.0109 6.90426 32.9134 7.00113C32.8159 7.09801 32.7385 7.21322 32.6857 7.34012C32.6329 7.46703 32.6057 7.60312 32.6057 7.74058C32.6088 10.8903 32.6103 13.7078 32.6103 16.1931C32.6103 17.7086 34.7246 17.6674 34.7383 16.0903ZM35.0263 8.80572L40.7269 8.81486C40.8051 8.81486 40.8801 8.84593 40.9353 8.90122C40.9906 8.95652 41.0217 9.03152 41.0217 9.10972L41.0171 11.3291C41.0172 11.3658 41.0086 11.4021 40.992 11.4359C40.9753 11.4697 40.9509 11.5005 40.9201 11.5264C40.8894 11.5523 40.8528 11.5728 40.8126 11.5868C40.7724 11.6008 40.7293 11.608 40.6857 11.608L35.0583 11.5989C34.9704 11.5988 34.8861 11.5694 34.824 11.5171C34.7618 11.4648 34.7269 11.3939 34.7269 11.32L34.7314 9.10058C34.7314 9.06185 34.7391 9.02351 34.7539 8.98774C34.7687 8.95196 34.7904 8.91946 34.8178 8.89208C34.8452 8.8647 34.8777 8.84298 34.9134 8.82816C34.9492 8.81334 34.9876 8.80572 35.0263 8.80572ZM48.1623 15.1921C50.1722 15.189 52.2042 15.1875 54.2583 15.1875C55.0065 15.1875 55.3737 15.5327 55.36 16.2229V16.2641C55.3463 16.9483 54.9981 17.2904 54.3154 17.2904C51.8148 17.2949 49.3516 17.298 46.9257 17.2995C46.6521 17.2995 46.3897 17.191 46.196 16.9977C46.0023 16.8045 45.8932 16.5423 45.8926 16.2687C45.8895 13.6965 45.8918 10.869 45.8994 7.78637C45.9025 7.12961 46.2461 6.78142 46.9303 6.7418H46.9737C47.664 6.75246 48.0091 7.13113 48.0091 7.8778C48.0061 10.2961 48.0046 12.6824 48.0046 15.0367C48.0046 15.1403 48.0571 15.1921 48.1623 15.1921ZM59.8286 16.6731C61.2061 14.2945 62.5044 12.0621 63.7234 9.97601C63.7585 9.91658 63.7927 9.91658 63.8263 9.97601C65.0697 12.1383 66.3809 14.3905 67.76 16.7326C68.5074 18.0057 70.3634 16.9657 69.5451 15.5669C68.032 12.981 66.4419 10.248 64.7748 7.36801C64.3154 6.57715 63.3143 6.41029 62.8183 7.26972C61.0948 10.2564 59.4926 13.0076 58.0114 15.5234C57.6457 16.1451 57.731 16.6914 58.2674 17.1623C58.2827 17.176 58.2994 17.1859 58.3177 17.192C58.9897 17.4236 59.4933 17.2507 59.8286 16.6731ZM75.2823 11.6628C76.5684 10.1832 77.8773 8.67992 79.2091 7.15306C80.2514 5.96221 81.8514 7.38164 80.8274 8.55192C79.1802 10.4353 77.683 12.1519 76.336 13.7016C76.2811 13.7641 76.2529 13.8373 76.2514 13.9211C76.2346 14.6068 76.2331 15.3382 76.2468 16.1153C76.2606 16.8628 75.6457 17.4753 74.8983 17.2628C74.2126 17.0662 74.0434 16.4468 74.0663 15.8068C74.0891 15.1226 74.0922 14.4849 74.0754 13.8936C74.074 13.8111 74.0431 13.7324 73.9886 13.6719C72.5181 12.0049 71.0324 10.3051 69.5314 8.57249C68.4686 7.34506 70.1074 5.99649 71.0766 7.10506C72.4068 8.62735 73.7333 10.1466 75.056 11.6628C75.1307 11.7496 75.2061 11.7496 75.2823 11.6628ZM85.8263 10.8971C85.5672 10.8926 85.4377 10.7615 85.4377 10.504V9.36112C85.4377 8.99236 85.6221 8.80798 85.9909 8.80798H93.1977C94.6034 8.80798 94.6377 6.6777 93.0034 6.69598C90.8808 6.71884 88.6126 6.71731 86.1989 6.69141C84.9211 6.67769 83.9451 7.15998 83.4834 8.33941C83.3205 8.75509 83.3351 9.23569 83.3495 9.70959V9.70976V9.70993C83.3567 9.9473 83.3638 10.183 83.3486 10.408C83.2274 12.1771 84.6834 13.1097 86.2743 13.0937C88.3238 13.0708 90.224 13.067 91.9749 13.0823C92.3208 13.0853 92.4937 13.2598 92.4937 13.6057L92.4914 14.6228C92.4914 14.9992 92.3032 15.1874 91.9269 15.1874C89.4781 15.1905 87.0895 15.1897 84.7611 15.1851C84.1516 15.1836 83.776 15.5295 83.6343 16.2228C83.6312 16.2381 83.6312 16.2541 83.6343 16.2708C83.7897 16.9642 84.1829 17.3078 84.8137 17.3017C86.7368 17.2849 89.053 17.288 91.7623 17.3108C93.3897 17.3246 94.6834 16.2663 94.6172 14.552C94.6065 14.299 94.6072 14.0484 94.6194 13.8C94.672 12.6731 94.1326 11.6331 93.0971 11.1646C92.672 10.9726 92.1158 10.8811 91.4286 10.8903C89.4385 10.9177 87.5711 10.92 85.8263 10.8971ZM108.651 14.7578C108.651 15.0912 108.586 15.4215 108.458 15.7296C108.331 16.0377 108.143 16.3176 107.908 16.5534C107.672 16.7892 107.392 16.9763 107.084 17.1039C106.776 17.2315 106.446 17.2972 106.112 17.2972H99.9132C99.2397 17.2972 98.5938 17.0296 98.1175 16.5534C97.6413 16.0772 97.3737 15.4313 97.3737 14.7578V9.24462C97.3737 8.57112 97.6413 7.92521 98.1175 7.44897C98.5938 6.97273 99.2397 6.70519 99.9132 6.70519H106.112C106.446 6.70519 106.776 6.77087 107.084 6.89849C107.392 7.02611 107.672 7.21316 107.908 7.44897C108.143 7.68478 108.331 7.96472 108.458 8.27282C108.586 8.58092 108.651 8.91113 108.651 9.24462V14.7578ZM106.498 9.25906C106.498 9.19903 106.486 9.13961 106.463 9.08418C106.44 9.02876 106.406 8.97842 106.364 8.93605C106.321 8.89367 106.271 8.86009 106.215 8.83721C106.16 8.81433 106.1 8.80261 106.04 8.80272L99.9419 8.81337C99.8819 8.81347 99.8224 8.8254 99.767 8.84847C99.7116 8.87154 99.6612 8.9053 99.6189 8.94782C99.5765 8.99035 99.5429 9.0408 99.52 9.09631C99.4971 9.15181 99.4854 9.21128 99.4855 9.27131L99.4951 14.7387C99.4952 14.7988 99.5071 14.8582 99.5302 14.9136C99.5533 14.969 99.587 15.0194 99.6295 15.0618C99.6721 15.1041 99.7225 15.1377 99.778 15.1606C99.8335 15.1835 99.893 15.1952 99.953 15.1951L106.051 15.1844C106.111 15.1843 106.171 15.1724 106.226 15.1493C106.282 15.1263 106.332 15.0925 106.374 15.05C106.417 15.0075 106.45 14.957 106.473 14.9015C106.496 14.846 106.508 14.7865 106.508 14.7265L106.498 9.25906ZM120.697 7.85954C120.696 9.81459 120.7 11.7544 120.711 13.679C120.711 13.7765 120.676 13.7917 120.606 13.7247C118.308 11.5898 115.901 9.35745 113.385 7.02754C112.674 6.36926 111.538 6.78069 111.541 7.77497C111.542 10.8881 111.544 13.6813 111.545 16.1544C111.547 16.8706 111.889 17.2394 112.571 17.2607H112.615C113.288 17.25 113.631 16.9216 113.641 16.2755C113.679 14.1971 113.68 12.1978 113.643 10.2778C113.643 10.2697 113.645 10.2617 113.649 10.2548C113.653 10.2479 113.659 10.2424 113.667 10.239C113.671 10.237 113.676 10.2357 113.681 10.2353C113.684 10.235 113.688 10.2351 113.691 10.2356C113.697 10.2364 113.702 10.2381 113.707 10.2406C113.709 10.242 113.712 10.2438 113.714 10.2458C116.101 12.4584 118.529 14.7068 120.999 16.991C121.673 17.615 122.814 17.2241 122.809 16.255C122.799 13.5975 122.799 10.8035 122.809 7.87326C122.811 7.17383 122.47 6.78069 121.787 6.69383C121.772 6.69231 121.758 6.69231 121.744 6.69383C121.046 6.76088 120.697 7.14945 120.697 7.85954Z" fill="white"/>
</g>
<defs>
<clipPath id="clip0_4051_7436">
<rect width="122.057" height="24" fill="white" transform="translate(0.971405 0.000976562)"/>
</clipPath>
</defs>
</svg>

<svg xmlns="http://www.w3.org/2000/svg" width="124" height="24" fill="none"><g clip-path="url(#a)"><path fill="#fff" fill-rule="evenodd" d="M4.343 22.424c.003-5.621.003-11.548 0-17.78 0-.097.043-.123.13-.08l14.69 7.364a.083.083 0 0 1 .033.116.083.083 0 0 1-.033.03l-8.198 4.112a.095.095 0 0 1-.095-.004.095.095 0 0 1-.045-.082l.018-4.103c.01-2.272-3.396-2.2-3.394-.11.002 2.398 0 4.81-.004 7.232-.003 1.374 1.501 1.943 2.605 1.385a3195.76 3195.76 0 0 1 13.7-6.866c1.44-.718 1.548-2.496.065-3.237A8609.373 8609.373 0 0 1 3.573.253C2.496-.287.973.198.973 1.578L.972 22.42c.003 1.67 2.21 2.062 3.095.842.185-.255.277-.534.277-.837Zm30.395-6.334c.008-.7.005-1.417-.009-2.153-.001-.102.049-.154.151-.155 1.719-.012 3.512-.012 5.38 0 1.73.011 2.922-.96 2.92-2.752-.001-.186.002-.373.005-.56.023-1.356.044-2.688-1.336-3.45-.404-.222-.88-.33-1.426-.326-2.43.018-4.687.02-6.768.004a1.042 1.042 0 0 0-1.05 1.043c.004 3.15.005 5.967.005 8.452 0 1.516 2.115 1.474 2.128-.103Zm.288-7.284 5.7.009a.294.294 0 0 1 .296.295l-.005 2.22a.24.24 0 0 1-.025.106.282.282 0 0 1-.072.09.34.34 0 0 1-.107.06.387.387 0 0 1-.127.022l-5.628-.01a.366.366 0 0 1-.234-.08.258.258 0 0 1-.097-.198l.004-2.22a.295.295 0 0 1 .295-.294Zm13.136 6.386c2.01-.003 4.042-.005 6.096-.005.748 0 1.116.346 1.102 1.036v.041c-.014.684-.362 1.026-1.045 1.026-2.5.005-4.963.008-7.39.01a1.033 1.033 0 0 1-1.032-1.031c-.004-2.572-.001-5.4.006-8.483.004-.656.347-1.005 1.031-1.044h.044c.69.01 1.035.39 1.035 1.136-.003 2.418-.004 4.804-.004 7.159 0 .103.052.155.157.155Zm11.667 1.481a1990.74 1990.74 0 0 1 3.894-6.697c.035-.06.07-.06.103 0a759.847 759.847 0 0 0 3.934 6.757c.747 1.273 2.603.233 1.785-1.166a2026.851 2026.851 0 0 1-4.77-8.199c-.46-.79-1.46-.958-1.957-.098a1099.964 1099.964 0 0 1-4.807 8.253c-.365.622-.28 1.168.256 1.64a.142.142 0 0 0 .05.029c.673.232 1.176.059 1.512-.519Zm15.453-5.01c1.286-1.48 2.595-2.983 3.927-4.51 1.042-1.19 2.642.229 1.618 1.399-1.647 1.883-3.144 3.6-4.491 5.15a.332.332 0 0 0-.085.22 52.244 52.244 0 0 0-.004 2.193c.014.748-.601 1.36-1.349 1.148-.685-.197-.855-.816-.832-1.456.023-.684.026-1.322.01-1.913a.34.34 0 0 0-.087-.222 756.377 756.377 0 0 1-4.458-5.1c-1.062-1.227.576-2.576 1.546-1.467 1.33 1.522 2.656 3.042 3.979 4.558.075.087.15.087.226 0Zm10.544-.766c-.259-.004-.388-.136-.388-.393V9.361c0-.369.184-.553.553-.553h7.207c1.405 0 1.44-2.13-.195-2.112-2.122.023-4.39.021-6.804-.005-1.278-.013-2.254.469-2.716 1.648-.163.416-.148.897-.133 1.37a7.25 7.25 0 0 1-.001.699c-.122 1.77 1.334 2.702 2.925 2.686 2.05-.023 3.95-.027 5.7-.012.347.003.52.178.52.524l-.003 1.017c0 .376-.188.564-.564.564-2.449.004-4.838.003-7.166-.002-.61-.001-.985.345-1.127 1.038a.125.125 0 0 0 0 .048c.156.693.549 1.037 1.18 1.03 1.923-.016 4.239-.013 6.948.01 1.628.014 2.921-1.045 2.855-2.759a8.23 8.23 0 0 1 .002-.752c.053-1.127-.486-2.167-1.522-2.635-.425-.192-.981-.284-1.668-.275-1.99.028-3.858.03-5.603.007Zm22.825 3.86a2.532 2.532 0 0 1-.743 1.796 2.543 2.543 0 0 1-1.796.744h-6.199a2.54 2.54 0 0 1-2.54-2.54V9.246a2.54 2.54 0 0 1 2.54-2.54h6.199a2.538 2.538 0 0 1 2.539 2.54v5.513Zm-2.153-5.498a.456.456 0 0 0-.458-.456l-6.098.01a.457.457 0 0 0-.456.458l.01 5.468a.456.456 0 0 0 .457.456l6.098-.01a.456.456 0 0 0 .457-.459l-.01-5.467Zm14.199-1.4c-.001 1.956.003 3.895.014 5.82 0 .098-.035.113-.105.046a6142.45 6142.45 0 0 0-7.221-6.697c-.711-.659-1.847-.247-1.844.747l.004 8.38c.002.716.344 1.084 1.026 1.106h.044c.673-.011 1.016-.34 1.026-.985.038-2.079.039-4.078.002-5.998 0-.008.002-.016.006-.023a.037.037 0 0 1 .018-.016.042.042 0 0 1 .024-.003.05.05 0 0 1 .016.005l.007.005a8528.6 8528.6 0 0 0 7.285 6.745c.674.624 1.815.233 1.81-.736a1170.2 1170.2 0 0 1 0-8.382c.002-.7-.339-1.092-1.022-1.18a.203.203 0 0 0-.043 0c-.698.068-1.047.456-1.047 1.167Z" clip-rule="evenodd"/></g><defs><clipPath id="a"><path fill="#fff" d="M.971.001h122.057v24H.971z"/></clipPath></defs></svg>
